austria/municipalities/70714.svg

<?xml version="1.0" encoding="UTF-8"?>
<!DOCTYPE svg PUBLIC "-//W3C//DTD SVG 1.1//EN" "http://www.w3.org/Graphics/SVG/1.1/DTD/svg11.dtd">
<svg xmlns="http://www.w3.org/2000/svg" version="1.1" width="166px" height="192px" style="shape-rendering:geometricPrecision; text-rendering:geometricPrecision; image-rendering:optimizeQuality; fill-rule:evenodd; clip-rule:evenodd" xmlns:xlink="http://www.w3.org/1999/xlink">
<g><path style="opacity:1" fill="#060606" d="M -0.5,-0.5 C 54.8333,-0.5 110.167,-0.5 165.5,-0.5C 165.5,39.1667 165.5,78.8333 165.5,118.5C 157.612,158.721 133.612,183.054 93.5,191.5C 86.1667,191.5 78.8333,191.5 71.5,191.5C 30.4674,182.802 6.46741,157.802 -0.5,116.5C -0.5,77.5 -0.5,38.5 -0.5,-0.5 Z"/></g>
<g><path style="opacity:1" fill="#423f3d" d="M 99.5,3.5 C 109.661,2.83349 119.995,2.50016 130.5,2.5C 141.189,2.50129 151.522,3.16796 161.5,4.5C 161.167,4.5 160.833,4.5 160.5,4.5C 140.674,3.50288 120.674,3.16955 100.5,3.5C 100.167,3.5 99.8333,3.5 99.5,3.5 Z"/></g>
<g><path style="opacity:1" fill="#fefefe" d="M 53.5,94.5 C 52.8333,95.1667 52.1667,95.8333 51.5,96.5C 50.8902,97.391 50.5569,98.391 50.5,99.5C 49.6618,99.8417 49.3284,100.508 49.5,101.5C 48.8902,102.391 48.5569,103.391 48.5,104.5C 47.8333,105.167 47.1667,105.833 46.5,106.5C 46.5,107.5 46.5,108.5 46.5,109.5C 45.0222,109.238 43.6888,109.571 42.5,110.5C 40.88,113.404 39.5467,116.404 38.5,119.5C 35.7417,122.678 33.7417,126.345 32.5,130.5C 29.7417,133.678 27.7417,137.345 26.5,141.5C 23.7417,144.678 21.7417,148.345 20.5,152.5C 19.5416,152.953 18.7083,153.619 18,154.5C 9.97073,142.748 5.30406,129.748 4,115.5C 3.50001,78.1682 3.33335,40.8348 3.5,3.5C 17.8333,3.5 32.1667,3.5 46.5,3.5C 47.9464,10.5817 50.613,17.2484 54.5,23.5C 53.5102,47.1215 53.1768,70.7882 53.5,94.5 Z"/></g>
<g><path style="opacity:1" fill="#fefefe" d="M 82.5,94.5 C 81.8333,95.1667 81.1667,95.8333 80.5,96.5C 80.4431,97.609 80.1098,98.609 79.5,99.5C 79.1667,100.167 78.8333,100.833 78.5,101.5C 78.5,102.167 78.5,102.833 78.5,103.5C 77.5,104.5 76.5,105.5 75.5,106.5C 75.5,107.5 75.5,108.5 75.5,109.5C 74.5,109.5 73.5,109.5 72.5,109.5C 72.2939,106.762 71.2939,104.428 69.5,102.5C 69.5,102.167 69.5,101.833 69.5,101.5C 69.7373,100.209 69.404,99.209 68.5,98.5C 68.6716,97.5084 68.3382,96.8417 67.5,96.5C 67.1667,95.8333 66.8333,95.1667 66.5,94.5C 66.8186,70.6339 66.4852,46.8006 65.5,23C 67.7511,16.5522 69.4178,10.0522 70.5,3.5C 72.5,3.5 74.5,3.5 76.5,3.5C 77.6193,10.5217 79.9527,17.1884 83.5,23.5C 82.5102,47.1215 82.1768,70.7882 82.5,94.5 Z"/></g>
<g><path style="opacity:1" fill="#9a9693" d="M 99.5,3.5 C 99.8333,3.5 100.167,3.5 100.5,3.5C 101.01,6.38779 100.344,8.72113 98.5,10.5C 99.3686,8.28298 99.702,5.94965 99.5,3.5 Z"/></g>
<g><path style="opacity:1" fill="#fcfbfb" d="M 100.5,3.5 C 120.674,3.16955 140.674,3.50288 160.5,4.5C 158.562,8.04319 156.895,11.7099 155.5,15.5C 153.076,18.0078 151.41,21.0078 150.5,24.5C 146.039,30.6538 142.372,37.3205 139.5,44.5C 137.076,47.0078 135.41,50.0078 134.5,53.5C 131.742,56.678 129.742,60.3447 128.5,64.5C 126.076,67.0078 124.41,70.0078 123.5,73.5C 119.039,79.6538 115.372,86.3205 112.5,93.5C 110.076,96.0078 108.41,99.0078 107.5,102.5C 105.61,104.59 103.943,106.923 102.5,109.5C 101.614,108.675 101.281,107.675 101.5,106.5C 100.833,105.833 100.167,105.167 99.5,104.5C 99.7373,103.209 99.404,102.209 98.5,101.5C 98.5,100.833 98.5,100.167 98.5,99.5C 98.4431,98.391 98.1098,97.391 97.5,96.5C 96.8333,95.8333 96.1667,95.1667 95.5,94.5C 95.8276,70.5918 95.4942,46.7585 94.5,23C 96.6804,19.1141 98.0138,14.9474 98.5,10.5C 100.344,8.72113 101.01,6.38779 100.5,3.5 Z"/></g>
<g><path style="opacity:1" fill="#0f1a10" d="M 160.5,4.5 C 160.833,4.5 161.167,4.5 161.5,4.5C 162.829,40.2643 162.829,75.931 161.5,111.5C 161.667,76.4984 161.5,41.4984 161,6.5C 159.643,9.89806 157.81,12.8981 155.5,15.5C 156.895,11.7099 158.562,8.04319 160.5,4.5 Z"/></g>
<g><path style="opacity:1" fill="#185b2a" d="M 161.5,111.5 C 158.88,147.616 140.547,171.783 106.5,184C 72.0363,193.065 43.203,184.231 20,157.5C 19.6155,155.803 19.7822,154.137 20.5,152.5C 23.2583,149.322 25.2583,145.655 26.5,141.5C 29.2583,138.322 31.2583,134.655 32.5,130.5C 35.2583,127.322 37.2583,123.655 38.5,119.5C 40.642,117.235 42.3087,114.568 43.5,111.5C 63.8333,110.833 84.1667,110.167 104.5,109.5C 105.788,107.261 106.788,104.928 107.5,102.5C 109.924,99.9922 111.59,96.9922 112.5,93.5C 116.961,87.3462 120.628,80.6795 123.5,73.5C 125.924,70.9922 127.59,67.9922 128.5,64.5C 131.258,61.322 133.258,57.6553 134.5,53.5C 136.924,50.9922 138.59,47.9922 139.5,44.5C 143.961,38.3462 147.628,31.6795 150.5,24.5C 152.924,21.9922 154.59,18.9922 155.5,15.5C 157.81,12.8981 159.643,9.89806 161,6.5C 161.5,41.4984 161.667,76.4984 161.5,111.5 Z"/></g>
<g><path style="opacity:1" fill="#f2f1f1" d="M 51.5,10.5 C 53.0348,9.21214 54.7015,9.21214 56.5,10.5C 54.9626,12.9302 53.296,12.9302 51.5,10.5 Z"/></g>
<g><path style="opacity:1" fill="#ecebeb" d="M 61.5,9.5 C 63.1992,9.33982 64.8659,9.50649 66.5,10C 64.5234,14.5529 62.8568,14.3862 61.5,9.5 Z"/></g>
<g><path style="opacity:1" fill="#ecebeb" d="M 81.5,9.5 C 83.1992,9.33982 84.8659,9.50649 86.5,10C 84.5234,14.5529 82.8568,14.3862 81.5,9.5 Z"/></g>
<g><path style="opacity:1" fill="#f7f6f6" d="M 90.5,10.5 C 95.4892,8.62879 96.3226,9.62879 93,13.5C 92.6232,12.0577 91.7899,11.0577 90.5,10.5 Z"/></g>
<g><path style="opacity:1" fill="#f5f5f5" d="M 56.5,12.5 C 58.6157,14.0881 58.949,16.0881 57.5,18.5C 55.261,16.8669 54.9277,14.8669 56.5,12.5 Z"/></g>
<g><path style="opacity:1" fill="#f6f6f5" d="M 60.5,12.5 C 62.6157,14.0881 62.949,16.0881 61.5,18.5C 59.4537,16.719 59.1204,14.719 60.5,12.5 Z"/></g>
<g><path style="opacity:1" fill="#f1f0f0" d="M 65.5,13.5 C 66.7122,15.2637 66.3788,16.9303 64.5,18.5C 63.3482,16.6029 63.6815,14.9362 65.5,13.5 Z"/></g>
<g><path style="opacity:1" fill="#f7f7f7" d="M 85.5,12.5 C 86.6935,12.9704 87.3601,13.9704 87.5,15.5C 87.1667,16.5 86.8333,17.5 86.5,18.5C 85.5344,16.604 85.2011,14.604 85.5,12.5 Z"/></g>
<g><path style="opacity:1" fill="#f6f5f5" d="M 89.5,12.5 C 90.6935,12.9704 91.3601,13.9704 91.5,15.5C 91.1667,16.5 90.8333,17.5 90.5,18.5C 89.5344,16.604 89.2011,14.604 89.5,12.5 Z"/></g>
<g><path style="opacity:1" fill="#e8e7e7" d="M 51.5,13.5 C 54.119,14.4028 54.7856,16.0695 53.5,18.5C 52.0499,17.1502 51.3832,15.4835 51.5,13.5 Z"/></g>
<g><path style="opacity:1" fill="#e8e6e6" d="M 80.5,13.5 C 81.4959,13.4142 82.3292,13.7476 83,14.5C 83.3095,15.7659 83.8095,16.9326 84.5,18C 81.9688,17.8721 80.6354,16.3721 80.5,13.5 Z"/></g>
<g><path style="opacity:1" fill="#eae9e8" d="M 94.5,13.5 C 95.3764,13.3691 96.0431,13.7025 96.5,14.5C 92.5694,19.8683 91.9028,19.535 94.5,13.5 Z"/></g>
<g><path style="opacity:1" fill="#161b15" d="M 155.5,15.5 C 154.59,18.9922 152.924,21.9922 150.5,24.5C 151.41,21.0078 153.076,18.0078 155.5,15.5 Z"/></g>
<g><path style="opacity:1" fill="#181e18" d="M 150.5,24.5 C 147.628,31.6795 143.961,38.3462 139.5,44.5C 142.372,37.3205 146.039,30.6538 150.5,24.5 Z"/></g>
<g><path style="opacity:1" fill="#161b16" d="M 139.5,44.5 C 138.59,47.9922 136.924,50.9922 134.5,53.5C 135.41,50.0078 137.076,47.0078 139.5,44.5 Z"/></g>
<g><path style="opacity:1" fill="#161c16" d="M 134.5,53.5 C 133.258,57.6553 131.258,61.322 128.5,64.5C 129.742,60.3447 131.742,56.678 134.5,53.5 Z"/></g>
<g><path style="opacity:1" fill="#161b16" d="M 128.5,64.5 C 127.59,67.9922 125.924,70.9922 123.5,73.5C 124.41,70.0078 126.076,67.0078 128.5,64.5 Z"/></g>
<g><path style="opacity:1" fill="#181e18" d="M 123.5,73.5 C 120.628,80.6795 116.961,87.3462 112.5,93.5C 115.372,86.3205 119.039,79.6538 123.5,73.5 Z"/></g>
<g><path style="opacity:1" fill="#595653" d="M 53.5,94.5 C 57.8333,94.5 62.1667,94.5 66.5,94.5C 66.8333,95.1667 67.1667,95.8333 67.5,96.5C 62.1667,96.5 56.8333,96.5 51.5,96.5C 52.1667,95.8333 52.8333,95.1667 53.5,94.5 Z"/></g>
<g><path style="opacity:1" fill="#5d5a57" d="M 82.5,94.5 C 86.8333,94.5 91.1667,94.5 95.5,94.5C 96.1667,95.1667 96.8333,95.8333 97.5,96.5C 91.8333,96.5 86.1667,96.5 80.5,96.5C 81.1667,95.8333 81.8333,95.1667 82.5,94.5 Z"/></g>
<g><path style="opacity:1" fill="#131312" d="M 51.5,96.5 C 56.8333,96.5 62.1667,96.5 67.5,96.5C 68.3382,96.8417 68.6716,97.5084 68.5,98.5C 65.9134,99.8164 62.9134,100.483 59.5,100.5C 56.3138,100.498 53.3138,100.165 50.5,99.5C 50.5569,98.391 50.8902,97.391 51.5,96.5 Z"/></g>
<g><path style="opacity:1" fill="#141313" d="M 80.5,96.5 C 86.1667,96.5 91.8333,96.5 97.5,96.5C 98.1098,97.391 98.4431,98.391 98.5,99.5C 92.1667,100.833 85.8333,100.833 79.5,99.5C 80.1098,98.609 80.4431,97.609 80.5,96.5 Z"/></g>
<g><path style="opacity:1" fill="#161b16" d="M 112.5,93.5 C 111.59,96.9922 109.924,99.9922 107.5,102.5C 108.41,99.0078 110.076,96.0078 112.5,93.5 Z"/></g>
<g><path style="opacity:1" fill="#93908d" d="M 68.5,98.5 C 69.404,99.209 69.7373,100.209 69.5,101.5C 62.8333,101.5 56.1667,101.5 49.5,101.5C 49.3284,100.508 49.6618,99.8417 50.5,99.5C 53.3138,100.165 56.3138,100.498 59.5,100.5C 62.9134,100.483 65.9134,99.8164 68.5,98.5 Z"/></g>
<g><path style="opacity:1" fill="#8f8b88" d="M 79.5,99.5 C 85.8333,100.833 92.1667,100.833 98.5,99.5C 98.5,100.167 98.5,100.833 98.5,101.5C 91.8333,101.5 85.1667,101.5 78.5,101.5C 78.8333,100.833 79.1667,100.167 79.5,99.5 Z"/></g>
<g><path style="opacity:1" fill="#010101" d="M 49.5,101.5 C 56.1667,101.5 62.8333,101.5 69.5,101.5C 69.5,101.833 69.5,102.167 69.5,102.5C 62.9131,104.461 55.9131,105.128 48.5,104.5C 48.5569,103.391 48.8902,102.391 49.5,101.5 Z"/></g>
<g><path style="opacity:1" fill="#010101" d="M 78.5,101.5 C 85.1667,101.5 91.8333,101.5 98.5,101.5C 99.404,102.209 99.7373,103.209 99.5,104.5C 92.3134,104.825 85.3134,104.491 78.5,103.5C 78.5,102.833 78.5,102.167 78.5,101.5 Z"/></g>
<g><path style="opacity:1" fill="#423f3d" d="M 69.5,102.5 C 71.2939,104.428 72.2939,106.762 72.5,109.5C 71.596,108.791 71.2627,107.791 71.5,106.5C 63.1667,106.5 54.8333,106.5 46.5,106.5C 47.1667,105.833 47.8333,105.167 48.5,104.5C 55.9131,105.128 62.9131,104.461 69.5,102.5 Z"/></g>
<g><path style="opacity:1" fill="#43403e" d="M 78.5,103.5 C 85.3134,104.491 92.3134,104.825 99.5,104.5C 100.167,105.167 100.833,105.833 101.5,106.5C 92.8333,106.5 84.1667,106.5 75.5,106.5C 76.5,105.5 77.5,104.5 78.5,103.5 Z"/></g>
<g><path style="opacity:1" fill="#030403" d="M 107.5,102.5 C 106.788,104.928 105.788,107.261 104.5,109.5C 84.1667,110.167 63.8333,110.833 43.5,111.5C 42.3087,114.568 40.642,117.235 38.5,119.5C 39.5467,116.404 40.88,113.404 42.5,110.5C 43.6888,109.571 45.0222,109.238 46.5,109.5C 46.5,108.5 46.5,107.5 46.5,106.5C 54.8333,106.5 63.1667,106.5 71.5,106.5C 71.2627,107.791 71.596,108.791 72.5,109.5C 73.5,109.5 74.5,109.5 75.5,109.5C 75.5,108.5 75.5,107.5 75.5,106.5C 84.1667,106.5 92.8333,106.5 101.5,106.5C 101.281,107.675 101.614,108.675 102.5,109.5C 103.943,106.923 105.61,104.59 107.5,102.5 Z"/></g>
<g><path style="opacity:1" fill="#fdfdfd" d="M -0.5,116.5 C 6.46741,157.802 30.4674,182.802 71.5,191.5C 47.5,191.5 23.5,191.5 -0.5,191.5C -0.5,166.5 -0.5,141.5 -0.5,116.5 Z"/></g>
<g><path style="opacity:1" fill="#fdfdfd" d="M 165.5,118.5 C 165.5,142.833 165.5,167.167 165.5,191.5C 141.5,191.5 117.5,191.5 93.5,191.5C 133.612,183.054 157.612,158.721 165.5,118.5 Z"/></g>
<g><path style="opacity:1" fill="#161c16" d="M 38.5,119.5 C 37.2583,123.655 35.2583,127.322 32.5,130.5C 33.7417,126.345 35.7417,122.678 38.5,119.5 Z"/></g>
<g><path style="opacity:1" fill="#161b16" d="M 32.5,130.5 C 31.2583,134.655 29.2583,138.322 26.5,141.5C 27.7417,137.345 29.7417,133.678 32.5,130.5 Z"/></g>
<g><path style="opacity:1" fill="#171d16" d="M 26.5,141.5 C 25.2583,145.655 23.2583,149.322 20.5,152.5C 21.7417,148.345 23.7417,144.678 26.5,141.5 Z"/></g>
</svg>

<svg xmlns="http://www.w3.org/2000/svg" width="166" height="192" style="shape-rendering:geometricPrecision;text-rendering:geometricPrecision;image-rendering:optimizeQuality;fill-rule:evenodd;clip-rule:evenodd"><path style="opacity:1" fill="#060606" d="M-.5-.5h166v119c-7.888 40.221-31.888 64.554-72 73h-22c-41.033-8.698-65.033-33.698-72-75V-.5z"/><path style="opacity:1" fill="#423f3d" d="M99.5 3.5a473.69 473.69 0 0 1 31-1c10.689.001 21.022.668 31 2h-1a900.585 900.585 0 0 0-60-1h-1z"/><path style="opacity:1" fill="#fefefe" d="m53.5 94.5-2 2a5.728 5.728 0 0 0-1 3c-.838.342-1.172 1.008-1 2a5.728 5.728 0 0 0-1 3l-2 2v3c-1.478-.262-2.811.071-4 1a53.834 53.834 0 0 0-4 9c-2.758 3.178-4.758 6.845-6 11-2.758 3.178-4.758 6.845-6 11-2.758 3.178-4.758 6.845-6 11-.958.453-1.792 1.119-2.5 2-8.03-11.752-12.696-24.752-14-39-.5-37.332-.667-74.665-.5-112h43c1.446 7.082 4.113 13.748 8 20a1279.154 1279.154 0 0 0-1 71zM82.5 94.5l-2 2a5.728 5.728 0 0 1-1 3l-1 2v2l-3 3v3h-3c-.206-2.738-1.206-5.072-3-7v-1c.237-1.291-.096-2.291-1-3 .172-.992-.162-1.658-1-2l-1-2c.319-23.866-.015-47.7-1-71.5a116.843 116.843 0 0 0 5-19.5h6c1.12 7.022 3.453 13.688 7 20a1279.154 1279.154 0 0 0-1 71z"/><path style="opacity:1" fill="#9a9693" d="M99.5 3.5h1c.51 2.888-.156 5.221-2 7 .869-2.217 1.202-4.55 1-7z"/><path style="opacity:1" fill="#fcfbfb" d="M100.5 3.5c20.174-.33 40.174.003 60 1a81.699 81.699 0 0 0-5 11c-2.424 2.508-4.09 5.508-5 9-4.461 6.154-8.128 12.82-11 20-2.424 2.508-4.09 5.508-5 9-2.758 3.178-4.758 6.845-6 11-2.424 2.508-4.09 5.508-5 9-4.461 6.154-8.128 12.82-11 20-2.424 2.508-4.09 5.508-5 9a38.252 38.252 0 0 0-5 7c-.886-.825-1.219-1.825-1-3l-2-2c.237-1.291-.096-2.291-1-3v-2a5.728 5.728 0 0 0-1-3l-2-2c.328-23.908-.006-47.742-1-71.5a32.506 32.506 0 0 0 4-12.5c1.844-1.779 2.51-4.112 2-7z"/><path style="opacity:1" fill="#0f1a10" d="M160.5 4.5h1a1436.287 1436.287 0 0 1 0 107c.167-35.002 0-70.002-.5-105-1.357 3.398-3.19 6.398-5.5 9a81.699 81.699 0 0 1 5-11z"/><path style="opacity:1" fill="#185b2a" d="M161.5 111.5c-2.62 36.116-20.953 60.283-55 72.5-34.464 9.065-63.297.231-86.5-26.5-.384-1.697-.218-3.363.5-5 2.758-3.178 4.758-6.845 6-11 2.758-3.178 4.758-6.845 6-11 2.758-3.178 4.758-6.845 6-11 2.142-2.265 3.809-4.932 5-8l61-2a32.128 32.128 0 0 0 3-7c2.424-2.508 4.09-5.508 5-9 4.461-6.154 8.128-12.82 11-20 2.424-2.508 4.09-5.508 5-9 2.758-3.178 4.758-6.845 6-11 2.424-2.508 4.09-5.508 5-9 4.461-6.154 8.128-12.82 11-20 2.424-2.508 4.09-5.508 5-9 2.31-2.602 4.143-5.602 5.5-9 .5 34.998.667 69.998.5 105z"/><path style="opacity:1" fill="#f2f1f1" d="M51.5 10.5c1.535-1.288 3.202-1.288 5 0-1.537 2.43-3.204 2.43-5 0z"/><path style="opacity:1" fill="#ecebeb" d="M61.5 9.5c1.7-.16 3.366.006 5 .5-1.977 4.553-3.643 4.386-5-.5zM81.5 9.5c1.7-.16 3.366.006 5 .5-1.977 4.553-3.643 4.386-5-.5z"/><path style="opacity:1" fill="#f7f6f6" d="M90.5 10.5c4.99-1.871 5.823-.871 2.5 3-.377-1.442-1.21-2.442-2.5-3z"/><path style="opacity:1" fill="#f5f5f5" d="M56.5 12.5c2.116 1.588 2.449 3.588 1 6-2.239-1.633-2.572-3.633-1-6z"/><path style="opacity:1" fill="#f6f6f5" d="M60.5 12.5c2.116 1.588 2.449 3.588 1 6-2.046-1.781-2.38-3.781-1-6z"/><path style="opacity:1" fill="#f1f0f0" d="M65.5 13.5c1.212 1.764.879 3.43-1 5-1.152-1.897-.819-3.564 1-5z"/><path style="opacity:1" fill="#f7f7f7" d="M85.5 12.5c1.194.47 1.86 1.47 2 3l-1 3a9.864 9.864 0 0 1-1-6z"/><path style="opacity:1" fill="#f6f5f5" d="M89.5 12.5c1.194.47 1.86 1.47 2 3l-1 3a9.864 9.864 0 0 1-1-6z"/><path style="opacity:1" fill="#e8e7e7" d="M51.5 13.5c2.619.903 3.286 2.57 2 5-1.45-1.35-2.117-3.017-2-5z"/><path style="opacity:1" fill="#e8e6e6" d="M80.5 13.5c.996-.086 1.83.248 2.5 1 .31 1.266.81 2.433 1.5 3.5-2.531-.128-3.865-1.628-4-4.5z"/><path style="opacity:1" fill="#eae9e8" d="M94.5 13.5c.876-.13 1.543.203 2 1-3.93 5.368-4.597 5.035-2-1z"/><path style="opacity:1" fill="#161b15" d="M155.5 15.5c-.91 3.492-2.576 6.492-5 9 .91-3.492 2.576-6.492 5-9z"/><path style="opacity:1" fill="#181e18" d="M150.5 24.5c-2.872 7.18-6.539 13.846-11 20 2.872-7.18 6.539-13.846 11-20z"/><path style="opacity:1" fill="#161b16" d="M139.5 44.5c-.91 3.492-2.576 6.492-5 9 .91-3.492 2.576-6.492 5-9z"/><path style="opacity:1" fill="#161c16" d="M134.5 53.5c-1.242 4.155-3.242 7.822-6 11 1.242-4.155 3.242-7.822 6-11z"/><path style="opacity:1" fill="#161b16" d="M128.5 64.5c-.91 3.492-2.576 6.492-5 9 .91-3.492 2.576-6.492 5-9z"/><path style="opacity:1" fill="#181e18" d="M123.5 73.5c-2.872 7.18-6.539 13.846-11 20 2.872-7.18 6.539-13.846 11-20z"/><path style="opacity:1" fill="#595653" d="M53.5 94.5h13l1 2h-16l2-2z"/><path style="opacity:1" fill="#5d5a57" d="M82.5 94.5h13l2 2h-17l2-2z"/><path style="opacity:1" fill="#131312" d="M51.5 96.5h16c.838.342 1.172 1.008 1 2-2.587 1.316-5.587 1.983-9 2-3.186-.002-6.186-.335-9-1a5.728 5.728 0 0 1 1-3z"/><path style="opacity:1" fill="#141313" d="M80.5 96.5h17c.61.891.943 1.891 1 3a45.636 45.636 0 0 1-19 0 5.728 5.728 0 0 0 1-3z"/><path style="opacity:1" fill="#161b16" d="M112.5 93.5c-.91 3.492-2.576 6.492-5 9 .91-3.492 2.576-6.492 5-9z"/><path style="opacity:1" fill="#93908d" d="M68.5 98.5c.904.709 1.237 1.709 1 3h-20c-.172-.992.162-1.658 1-2 2.814.665 5.814.998 9 1 3.413-.017 6.413-.684 9-2z"/><path style="opacity:1" fill="#8f8b88" d="M79.5 99.5a45.636 45.636 0 0 0 19 0v2h-20l1-2z"/><path style="opacity:1" fill="#010101" d="M49.5 101.5h20v1c-6.587 1.961-13.587 2.628-21 2a5.728 5.728 0 0 1 1-3zM78.5 101.5h20c.904.709 1.237 1.709 1 3-7.187.325-14.187-.009-21-1v-2z"/><path style="opacity:1" fill="#423f3d" d="M69.5 102.5c1.794 1.928 2.794 4.262 3 7-.904-.709-1.237-1.709-1-3h-25l2-2c7.413.628 14.413-.039 21-2z"/><path style="opacity:1" fill="#43403e" d="M78.5 103.5c6.813.991 13.813 1.325 21 1l2 2h-26l3-3z"/><path style="opacity:1" fill="#030403" d="M107.5 102.5a32.128 32.128 0 0 1-3 7l-61 2c-1.191 3.068-2.858 5.735-5 8a53.834 53.834 0 0 1 4-9c1.189-.929 2.522-1.262 4-1v-3h25c-.237 1.291.096 2.291 1 3h3v-3h26c-.219 1.175.114 2.175 1 3a38.252 38.252 0 0 1 5-7z"/><path style="opacity:1" fill="#fdfdfd" d="M-.5 116.5c6.967 41.302 30.967 66.302 72 75h-72v-75zM165.5 118.5v73h-72c40.112-8.446 64.112-32.779 72-73z"/><path style="opacity:1" fill="#161c16" d="M38.5 119.5c-1.242 4.155-3.242 7.822-6 11 1.242-4.155 3.242-7.822 6-11z"/><path style="opacity:1" fill="#161b16" d="M32.5 130.5c-1.242 4.155-3.242 7.822-6 11 1.242-4.155 3.242-7.822 6-11z"/><path style="opacity:1" fill="#171d16" d="M26.5 141.5c-1.242 4.155-3.242 7.822-6 11 1.242-4.155 3.242-7.822 6-11z"/></svg>
